X: 24422
T: Low Flying Polo
R: jig
M: 6/8
K: Dmajor
d3 gf ed|eAe ag f2|def gf ed|efe A2 Bc|
dAA gf ed|e3 ag fe|def gf ed|efe A2 dd||
d3 ed fe|g2d ed fe|d2 eA fA|gdd a2 dd|
dAA eA fA|g2d ed fe|d2A eA fA|gdB A2 dd||

